X: 33
T:Otero Covelo. Ejercicio 4
M:C
L:1/4
C:Enrique Otero Covelo
K:C
G3F | EDCB, | C4 |: B,CDB,| CDEC| DEFD| EFGE | FGAF| GABG| ABcA | GABG|
FGAF| EFGE| DEFD| CDEC| B,CDB,| "repetir en corcheas" C4 :|

